!!!!SEGMENT: pl-kozmzk--mzk-m-346--015_walczynski-franciszek--cantantibus-organis-allegro-moderato.krn
!!!cenid: 18xx:2810
!!!COM: Walczyński, Franciszek
!!!COM-rismid: pe30021989
!!!CDT: ~1852-1937
!!!CNT: Polish
!!!GTL: Cantantibus organis op. 10
!!!OTL: 15. Allegro moderato
!!!PDT: 1898
!!!AGN: Secular
!!!SMS-siglum: PL-KOZmzk
!!!SMS-shelfmark: mzk/m/346
!!!SMS-shelfwork: 015 G
!!!SMS-variant:
!!!SMS-altvar:
!!!NIFC-rismid: 1001109085
!!!URL-scan: https://repozytorium.nifc.pl/islandora/object/pl-kozmzk%3A7453/datastream/PDF/view
!!!ONB-nifc:
!!!OMD: Allegro moderato.
!!!key:
**kern	**kern	**dynam
*part2	*part1	*part1
*staff2	*staff1	*
*Iorgan	*Iempty	*
*I"[Organo]	*	*
*clefF4	*clefG2	*
*k[f#c#]	*k[f#c#]	*
*D:	*D:	*
*M4/4	*M4/4	*
*met(c)	*met(c)	*
(8C#/L	4r	p
8D/J	.	.
=1	=1	=1
4A\	4r	.
4G\	(<8c#/L	<
.	8d/J	.
4F#\	4a/	.
4E\	4g/	[[
=2	=2	=2
4D\	4f#/	>
4Cn/	4e/	.
4BB/)	4d#X/)Z	]]
!	!	!LO:DY:a
4r	(8d#/L	fp
.	8e/J	.
=3	=3	=3
4r	4b/	.
(8D#X\L	4a/	.
8E\J	.	.
4B\	4g/	.
4A\	4f#/	.
=4	=4	=4
4G\	4e/	<
4G#X\	4dn/	.
4A\	4c#Z/)	.
4Gn\	(4e/	]]
=5	=5	=5
4F#\	4a/	>
4E\	4g/	.
4D\)	4f#Z/)	.
!	!	!LO:DY:a
4r	(8e#X/L	] f
.	8f#/J	.
=6	=6	=6
4r	4ee\	.
!	!	!LO:DY:b=2:rj
((8E#X\L	4dd\	f
8F#\J	.	.
4en\	4cc#\	.
4d\	4b\	.
=7	=7	=7
4c#\	4a/	.
4B\)	4g/	.
4A\	4f#Z/)	.
4A#X\	(4e/	.
=8	=8	=8
4B\	4d#X/	.
4An\	4f#/	.
4G#XZ\)	4b/	.
(4F#\	4a/	.
!!LO:LB:g=original
=9	=9	=9
4E\	4g#X/	<
4D\	4b\	.
4C#/	4ee\	.
4BB/	4dd\	.
=10	=10	=10
4AA/	4cc#\	[[
4GGn/	8b/L	.
.	8a/J	.
4FF#/	4dd\	.
4F#\	4a/	.
=11	=11	=11
4E\	4g/	>
4C#/	4a/	.
4D/)	4f#Z/)	.
!	!	!LO:DY:a
4r	(8d#X/L	] p
.	8e/J	.
=12	=12	=12
4r	4b\	.
!	!	!LO:DY:b=2:rj
(8D#X\L	4a/	p
8E\J	.	.
4B\	4g/	.
4A\	4f#/	.
=13	=13	=13
4G\	4e/	<
4G#X\	4d/	.
4A\	4c#Z/)	.
4Gn\	(4e/	[[
=14	=14	=14
4Fn\	4a/	>
4E\	4gn/	.
4DZ\)	4fn/)	.
!	!	!LO:DY:b=2
(8C#X/L	4r	] pp
8D/J	.	.
=15	=15	=15
4A\	4r	.
!	!	!LO:DY:a
4G\	(8c#X/L	pp <
.	8d/J	.
4F#X\	4a/	[[
4E\	4g/	>
=16	=16	=16
4DZ\)	4f#X/)	]]
!	!	!LO:DY:b=2
(<8GG#X/L	4r	pp
8AA/J	.	.
4D/	4r	.
!	!	!LO:DY:rj
4Cn/	(>8G#X/L	ppp <
.	8A/J	.
=17	=17	=17
!	!LO:TX:a:i:t=rall. molto	!
4BB-X/	4d/	.
4AA/	4cn/	[
4GG/	4B-X/	>
4C#X\	8A</L	.
.	8G</J	.
=18	=18	=18
2.D;<\)	2.F#X<;/)	]]
==	==	==
*-	*-	*-
!!!system-decoration: {(s1Zs2)}
!!!EED: Andrzej Borzym
!!!EST: 2021-08-09
!!!RDF**kern: Z = caesura
!!!RDF**kern: > = above
!!!RDF**kern: < = below
!!!AIN: 1 empty 1 organ
!!!ENC: Anastazja Marusiak
!!!END: 2021-07-28
